X:767
T:Reel 767
M:4/4
K:Emin
L:1/8
BA|:GEEF G2EF|G2FG AcBA||GEEF G2ef|g2fd BcdA:||2GFEF GABa|gefd e2ef|g2bg f2af|e2fe Bdef|gabg fgaf|gfed edBA|g2bg f2af|e2fe Bdef|gabg f2af|gfed edBA|
